X:1
T:[ID 1-76]
T:[ID 1-76]
T:Bezeichnung standardisiert: Polonaise Pol.
T:Urheber unbekannt Datum in der hier transkribierten schriftlichen Quelle: vermutlich vor 1767
C:Urheber unbekannt
C:Datum in der hier transkribierten schriftlichen Quelle: vermutlich vor 1767
L:1/8
M:3/4
K:G
V:1 treble 
V:1
 BB/d/ cc/e/ d2 | BB/d/ cc/B/ A2 |"^O)" D/F/A/D/ (cccc) | D/F/A/D/ (BBBB) |"^O)" D/F/A/D/ (cccc) | %5
 D/F/A/D/ (BBBB) | BB/d/ cc/e/ d2 | B/A/G/F/ G4 :: x6 |: FF/A/ GG/B/ A2 | FD/F/ GG/F/ E2 | %11
 ff/a/ gg/b/ a2 | fe/f/ gg/f/ e2 |"^O)" A/^c/e/c/ (gggg) | A/^c/e/c/ (ffff) | %15
"^O)" A/^c/e/c/ (gggg) | A/^c/e/c/ (ffff) | ff/a/ gg/b/ a2 | f/e/d/^c/ d4 | dG/A/ B/c/d/e/ _f2 | %20
 fe/f/ g/_f/e/d/ c2 | eA/B/ ^c/d/e/^f/ g2 | gf/g/ a/g/f/e/ d2 | BB/d/ cc/e/ d2 | B/A/G/F/ G4 :| %25

